docs/assets/img/details/locality/hospital-sign.svg

<?xml version="1.0" encoding="UTF-8"?>
<svg width="40px" height="40px" viewBox="0 0 40 40" version="1.1" xmlns="http://www.w3.org/2000/svg" xmlns:xlink="http://www.w3.org/1999/xlink">
    <title>hospital-sign</title>
    <g id="Welcome" stroke="none" stroke-width="1" fill="none" fill-rule="evenodd">
        <g id="lpw-featured-development-detailed-page-1.0" transform="translate(-750.000000, -9900.000000)" fill="#000000">
            <g id="hospital-sign" transform="translate(750.000000, 9900.000000)">
                <path d="M20.0489833,31.2565423 C18.1375382,31.2565423 16.5822213,29.7024689 16.5822213,27.7897802 L16.5822213,23.4581197 L12.2496103,23.4585875 C10.3381652,23.4585875 8.78284823,21.9031121 8.78284823,19.9918254 C8.78284823,18.0796001 10.3381692,16.5250633 12.2496103,16.5250633 L16.5826569,16.5255311 L16.5826569,12.1924844 C16.5826569,10.2811978 18.1379778,8.72572238 20.049419,8.72572238 C21.9607056,8.72572238 23.516181,10.2811978 23.516181,12.1924844 L23.516181,16.5255311 L27.8483168,16.5255311 C29.7605421,16.5255311 31.3150788,18.0796045 31.3150788,19.9922931 C31.3150788,21.9035798 29.7610054,23.4590552 27.8483168,23.4590552 L23.5157058,23.4585875 L23.5157058,27.7902479 C23.5157058,29.7010673 21.9602304,31.2565427 20.0489437,31.2565427 L20.0489833,31.2565423 Z M12.2496261,18.2576796 C11.2938244,18.2576796 10.5168669,19.0347916 10.5168669,19.9918408 C10.5168669,20.9474842 11.2938244,21.7244417 12.2496261,21.7244417 L17.4489732,21.7244417 C17.9265632,21.7244417 18.3152736,22.1131545 18.3152736,22.5909005 L18.3152736,27.7902475 C18.3152736,28.7468255 19.0936331,29.5242543 20.0480328,29.5242543 C21.0022742,29.5242543 21.7806337,28.7472968 21.7806337,27.7902475 L21.7806337,22.5909005 C21.7806337,22.1117541 22.1693465,21.7244417 22.6469341,21.7244417 L27.8458455,21.7244417 C28.8016472,21.7244417 29.5786047,20.9474842 29.5786047,19.9918408 C29.5786047,19.0352628 28.8016472,18.2576796 27.8458455,18.2576796 L22.6469341,18.2576796 C22.1693441,18.2576796 21.7806337,17.8689668 21.7806337,17.3927812 L21.7806337,12.1924836 C21.7806337,11.2368403 21.0022742,10.4598828 20.0480328,10.4598828 C19.093637,10.4598828 18.3152736,11.2368403 18.3152736,12.1924836 L18.3152736,17.3927812 C18.3152736,17.8703712 17.9265608,18.2576796 17.4489732,18.2576796 L12.2496261,18.2576796 Z" id="_188139144"></path>
                <path d="M20.0489833,39.9223187 C9.05836614,39.9223187 0.117024281,30.9809768 0.117024281,19.9905181 C0.117024281,9.00005929 9.05836614,0.0587174323 20.0489833,0.0587174323 C31.0394421,0.0587174323 39.980784,8.99863354 39.980784,19.9905181 C39.9793808,30.9814521 31.0399174,39.9223187 20.0489833,39.9223187 Z M20.0489833,1.79274401 C10.0151224,1.79274401 1.85120927,9.95665709 1.85120927,19.9919438 C1.85120927,30.0272305 10.0151224,38.1895595 20.0489833,38.1895595 C30.0828443,38.1895595 38.246599,30.0267553 38.246599,19.9919438 C38.246599,9.95713234 30.0828443,1.79274401 20.0489833,1.79274401 Z" id="_188153136"></path>
            </g>
        </g>
    </g>
</svg>

<svg width="40" height="40" xmlns="http://www.w3.org/2000/svg"><g fill-rule="evenodd"><path d="M20.049 31.257a3.47 3.47 0 01-3.467-3.467v-4.332H12.25a3.471 3.471 0 01-3.467-3.466 3.47 3.47 0 013.467-3.467h4.333v-4.333a3.471 3.471 0 013.466-3.466 3.471 3.471 0 013.467 3.466v4.334h4.332a3.47 3.47 0 013.467 3.466 3.47 3.47 0 01-3.467 3.467h-4.332v4.331a3.471 3.471 0 01-3.467 3.467zm-7.8-13a1.734 1.734 0 000 3.467h5.2c.478 0 .866.39.866.867v5.2c0 .956.779 1.733 1.733 1.733.954 0 1.733-.777 1.733-1.734v-5.2c0-.478.388-.866.866-.866h5.199a1.734 1.734 0 000-3.466h-5.2a.867.867 0 01-.865-.865v-5.2c0-.956-.779-1.733-1.733-1.733-.954 0-1.733.777-1.733 1.732v5.2a.866.866 0 01-.866.866h-5.2z"/><path d="M20.049 39.922C9.059 39.922.117 30.981.117 19.991S9.058.059 20.049.059c10.99 0 19.932 8.94 19.932 19.932-.002 10.99-8.941 19.931-19.932 19.931zm0-38.13c-10.034 0-18.198 8.165-18.198 18.2S10.015 38.19 20.05 38.19s18.198-8.163 18.198-18.198-8.164-18.2-18.198-18.2z"/></g></svg>
